!!!OTL: TYPE 1
**kern	**kern	**kern
*I"Alto Recorder (C)	*I"Alto Recorder (C)	*I"Alto Recorder (C)
*clefG2	*clefG2	*clefG2
*Trd0c0	*Trd0c0	*Trd0c0
*k[]	*k[]	*k[]
*C:	*C:	*C:
*M4/4	*M4/4	*M4/4
*MM110	*MM110	*MM110
=1	=1	=1
!LO:TX:a:t=[eighth]=110	!	!
1ee	1ee	1ee
=	=	=
2f#X	2ee	2ddd
2g	2ee	2ccc
=	=	=
1a	1ee	1bb
=	=	=
1cc#X	1ee	1aa
=	=	=
1dd	1ee	1ff#X
=	=	=
2f	2ee	2eee-X
2g	2ee	2ccc
=	=	=
1b-X	1ee	1bb-X
=	=	=
1cc#X	1ee	1gg
=	=	=
1b	1ee	1aa
=	=	=
1g#X	1ee	1ccc
=	=	=
2dd#X	2ee	2ffn
2ddn	2ee	2gg
=	=	=
2cc	2ee	2gg#X
2a	2ee	2aa
=	=	=
1g	1ee	1ccc#X
=	=	=
1g#X	1een	1bb
==	==	==
*-	*-	*-
!!!COM: Composer
